dist/img/ig.svg

<svg width="15" height="14" viewBox="0 0 15 14" fill="none" xmlns="http://www.w3.org/2000/svg">
<path d="M14.5396 4.11365C14.5054 3.36808 14.3866 2.86018 14.214 2.41414C14.0349 1.95345 13.7956 1.56276 13.4066 1.1737C13.0175 0.784638 12.6268 0.545339 12.1661 0.366273C11.7201 0.193718 11.2122 0.0748824 10.4666 0.040697C9.72107 0.00813939 9.4834 0 7.58203 0C5.68067 0 5.443 0.00813943 4.6958 0.0423249C3.95024 0.0765103 3.44234 0.195346 2.9963 0.367901C2.53561 0.546967 2.14492 0.786266 1.75585 1.17533C1.36679 1.56439 1.12749 1.95508 0.948426 2.41577C0.775871 2.86181 0.657036 3.36971 0.62285 4.11528C0.590293 4.86085 0.582153 5.09852 0.582153 6.99988C0.582153 8.90124 0.590293 9.13891 0.624478 9.88611C0.658664 10.6317 0.777499 11.1396 0.950054 11.5856C1.12912 12.0463 1.36842 12.437 1.75748 12.8261C2.14655 13.2151 2.53724 13.4544 2.99793 13.6335C3.44396 13.806 3.95186 13.9249 4.69743 13.9591C5.443 13.9916 5.68067 13.9998 7.58203 13.9998C9.4834 13.9998 9.72107 13.9916 10.4683 13.9574C11.2138 13.9232 11.7217 13.8044 12.1678 13.6319C12.6285 13.4528 13.0191 13.2135 13.4082 12.8244C13.7973 12.4354 14.0366 12.0447 14.2156 11.584C14.3882 11.1379 14.507 10.63 14.5412 9.88448C14.5738 9.13891 14.5819 8.90124 14.5819 6.99988C14.5819 5.09852 14.5738 4.86085 14.5396 4.11365ZM13.2796 9.82913C13.2487 10.5112 13.1347 10.8824 13.0387 11.1282C12.9117 11.4554 12.7603 11.6882 12.5145 11.9324C12.2703 12.1765 12.0359 12.3296 11.7103 12.4565C11.4629 12.5526 11.0934 12.6665 10.4113 12.6975C9.67386 12.7316 9.45247 12.7382 7.58203 12.7382C5.7116 12.7382 5.49184 12.7316 4.75278 12.6975C4.0707 12.6665 3.69954 12.5526 3.45373 12.4565C3.12653 12.3296 2.89374 12.1782 2.64956 11.9324C2.40538 11.6882 2.25236 11.4538 2.12538 11.1282C2.02934 10.8807 1.91539 10.5112 1.88446 9.82913C1.85027 9.0917 1.84376 8.87031 1.84376 6.99988C1.84376 5.12945 1.85027 4.90968 1.88446 4.17063C1.91539 3.48854 2.02934 3.11739 2.12538 2.87158C2.25236 2.54437 2.40375 2.31159 2.64956 2.06741C2.89374 1.82322 3.12816 1.6702 3.45373 1.54323C3.70117 1.44718 4.0707 1.33323 4.75278 1.3023C5.49021 1.26812 5.7116 1.26161 7.58203 1.26161C9.45247 1.26161 9.67223 1.26812 10.4113 1.3023C11.0934 1.33323 11.4645 1.44718 11.7103 1.54323C12.0375 1.6702 12.2703 1.8216 12.5145 2.06741C12.7587 2.31159 12.9117 2.546 13.0387 2.87158C13.1347 3.11902 13.2487 3.48854 13.2796 4.17063C13.3138 4.90805 13.3203 5.12945 13.3203 6.99988C13.3203 8.87031 13.3138 9.09008 13.2796 9.82913Z" fill="white"/>
<path d="M7.5819 3.40601C5.59589 3.40601 3.98755 5.01598 3.98755 7.00036C3.98755 8.98637 5.59752 10.5947 7.5819 10.5947C9.56629 10.5947 11.1763 8.98637 11.1763 7.00036C11.1763 5.01435 9.56792 3.40601 7.5819 3.40601ZM7.5819 9.33311C6.29262 9.33311 5.24915 8.28801 5.24915 7.00036C5.24915 5.71271 6.29262 4.66761 7.5819 4.66761C8.87118 4.66761 9.91466 5.71108 9.91466 7.00036C9.91466 8.28964 8.87118 9.33311 7.5819 9.33311Z" fill="white"/>
<path d="M11.5108 4.08108C11.9623 3.97447 12.2418 3.52205 12.1352 3.07058C12.0286 2.6191 11.5762 2.33952 11.1247 2.44613C10.6732 2.55274 10.3937 3.00516 10.5003 3.45663C10.6069 3.90811 11.0593 4.18769 11.5108 4.08108Z" fill="white"/>
</svg>

<svg fill="none" xmlns="http://www.w3.org/2000/svg" viewBox="0 0 15 14"><path d="M14.54 4.114c-.035-.746-.153-1.254-.326-1.7a3.434 3.434 0 00-.807-1.24c-.39-.39-.78-.629-1.24-.808-.447-.172-.955-.291-1.7-.325C9.72.008 9.483 0 7.582 0 5.681 0 5.443.008 4.696.042c-.746.035-1.254.153-1.7.326-.46.179-.851.418-1.24.807-.39.39-.629.78-.808 1.24-.172.447-.291.955-.325 1.7C.59 4.861.583 5.1.583 7c0 1.901.007 2.139.041 2.886.035.746.153 1.254.326 1.7.18.46.418.851.807 1.24.39.39.78.628 1.24.807.447.173.955.292 1.7.326.746.033.984.04 2.885.04 1.901 0 2.14-.007 2.886-.042.746-.034 1.254-.153 1.7-.325.46-.18.851-.418 1.24-.808.39-.389.629-.78.808-1.24.172-.446.291-.954.325-1.7.033-.745.04-.983.04-2.884 0-1.901-.007-2.14-.041-2.886zm-1.26 5.715c-.031.682-.145 1.053-.241 1.3-.127.326-.279.56-.524.803a2.18 2.18 0 01-.805.524c-.247.097-.617.21-1.299.242-.737.034-.959.04-2.829.04s-2.09-.006-2.83-.04c-.681-.032-1.052-.145-1.298-.242a2.146 2.146 0 01-.804-.524 2.18 2.18 0 01-.525-.804c-.096-.247-.21-.617-.24-1.299-.035-.737-.041-.959-.041-2.83 0-1.87.006-2.09.04-2.828.031-.682.145-1.054.241-1.3.127-.327.279-.56.525-.804a2.18 2.18 0 01.804-.524c.247-.096.617-.21 1.299-.24.737-.035.959-.041 2.829-.041s2.09.006 2.83.04c.681.031 1.052.145 1.298.241.327.127.56.279.804.524.245.245.398.479.525.805.096.247.21.617.24 1.299.035.737.041.958.041 2.829 0 1.87-.006 2.09-.04 2.83z" fill="#fff"/><path d="M7.582 3.406a3.594 3.594 0 100 7.188 3.594 3.594 0 000-7.188zm0 5.927a2.333 2.333 0 110-4.665 2.333 2.333 0 010 4.665zm3.928-5.252a.84.84 0 10-.385-1.635.84.84 0 00.386 1.635z" fill="#fff"/></svg>
